X: 268
T:Da Full Rigged Ship
M:6/8
L:1/8
Q:3/8=72
K:ADor
e|e2a aea|aea aba|e2f g2g|gag  f2
d|e2a aea|aea aba|g2e edB|A3   E2:|
z|efe edB|A2B c3 |B2G B2G|Bcd  E3 |
  efe edB|A2B c2d|efe dBG|A3   A2:|
G|EGE EGE|EGE c3 |EGE E2D|E2F  GEC|
  EGE EGE|EGE c2d|efe dBG|A3   A2:|

The second tune fills a gap at the third (but making it major), and then
lowers that third from major to minor in the last part:

